X:16016
T:Pretty Maggie Morrisey
R:Hornpipe
C:Trad.
O:England
Z:Paul Hardy's Session Tunebook 2015 (see www.paulhardy.net). Creative Commons cc by-nc-sa licenced.
M:4/4
L:1/8
Q:1/4=120
K:G
Bc|"G"dBGB "D"cAFD|(3GFG AF "G"GABc|dgfg "Em"efge|"G"dBGB "Am"A2 Bc|
"G"dBGB "Am"cA"G"GA|"D"(3GFG AF "G"GABc|dgfg "Am"ec"D"AF|"G"G2B2 G2:|
|:Bc|"G"dgfg "Em"egfg|"G"dgfg "Em"egfg|"G"dgfg "Em"efge|"G"dBGB "Am"A2 Bc|
"G"dBGB "Am"cAFA|"D"(3GFG AF "G"GABc|dgfg "Am"ecAF|"G"G2B2 G2:|

